img/hit-icon.svg

<svg width="56" height="22" viewBox="0 0 56 22" fill="none" xmlns="http://www.w3.org/2000/svg">
<circle cx="10.5" cy="10.5" r="10.5" fill="#FF0404"/>
<rect width="56" height="22" rx="5" fill="#FF0404"/>
<path d="M4 12.7583C4 9.48139 6.35273 7.15185 6.35273 7.15185C6.35273 7.15185 5.8236 10.046 7.64736 10.3924C8.93214 10.6369 9.8872 9.41351 9.25792 6.86077C8.65667 4.4244 10.0634 2.42427 11.3356 2C11.3356 2 11.2558 3.9174 13.2018 5.75388C15.1075 7.55248 17.0311 9.56413 17.0311 12.7583C17.0311 14.4863 16.3447 16.1436 15.1228 17.3655C13.9009 18.5874 12.2436 19.2738 10.5156 19.2738C8.78754 19.2738 7.13027 18.5874 5.90837 17.3655C4.68646 16.1436 4 14.4863 4 12.7583Z" fill="white"/>
<path d="M10.5158 12.6634C10.5158 12.6634 8.21948 14.5894 8.21948 16.9773C8.21948 17.5863 8.46142 18.1704 8.89207 18.6011C9.32272 19.0317 9.90681 19.2737 10.5158 19.2737C11.1249 19.2737 11.709 19.0317 12.1396 18.6011C12.5703 18.1704 12.8122 17.5863 12.8122 16.9773C12.8122 14.5894 10.5158 12.6634 10.5158 12.6634Z" fill="#FF0404"/>
<path d="M25.072 7.06L27.536 10.728L29.986 7.06H32.086L28.642 12.1L31.974 17H29.874L27.536 13.472L25.184 17H23.07L26.402 12.1L22.958 7.06H25.072ZM33.1568 17V7.06H35.0748V14.284L39.8908 7.06H41.6828V17H39.7648V9.86L35.0048 17H33.1568ZM51.2532 8.754H48.0752V17H46.1572V8.754H42.9792V7.06H51.2532V8.754Z" fill="white"/>
</svg>

<svg width="56" height="22" fill="none" xmlns="http://www.w3.org/2000/svg"><circle cx="10.5" cy="10.5" r="10.5" fill="#FF0404"/><rect width="56" height="22" rx="5" fill="#FF0404"/><path d="M4 12.758c0-3.277 2.353-5.606 2.353-5.606s-.53 2.894 1.294 3.24c1.285.245 2.24-.978 1.61-3.531-.6-2.437.806-4.437 2.079-4.861 0 0-.08 1.917 1.866 3.754 1.905 1.798 3.83 3.81 3.83 7.004a6.516 6.516 0 11-13.032 0z" fill="#fff"/><path d="M10.516 12.663s-2.297 1.926-2.297 4.314a2.297 2.297 0 004.593 0c0-2.388-2.296-4.314-2.296-4.314z" fill="#FF0404"/><path d="M25.072 7.06l2.464 3.668 2.45-3.668h2.1l-3.444 5.04 3.332 4.9h-2.1l-2.338-3.528L25.184 17H23.07l3.332-4.9-3.444-5.04h2.114zM33.157 17V7.06h1.918v7.224L39.89 7.06h1.792V17h-1.918V9.86L35.005 17h-1.848zm18.096-8.246h-3.178V17h-1.918V8.754H42.98V7.06h8.274v1.694z" fill="#fff"/></svg>
